X:2649
T:Careao (Silvamayor-Luarca)
C:Trad
M:3/8
L:1/8
Q:3/8=76
K:F
|: F2 F|FGA|B2 B|c2{c} c|BAG|A z2|
|B2 A|GFE|D2 E|F2 G|BAG|F3-|F3-|F3 :|


